icons/src/fluent/svg/textbox_24_filled.svg

<svg width="24" height="24" viewBox="0 0 24 24" fill="none" xmlns="http://www.w3.org/2000/svg">
<path d="M21 5.75C21 4.23122 19.7688 3 18.25 3H5.75C4.23122 3 3 4.23122 3 5.75V18.25C3 19.7688 4.23122 21 5.75 21H18.25C19.7688 21 21 19.7688 21 18.25V5.75ZM14.25 11.5C14.6642 11.5 15 11.8358 15 12.25C15 12.6297 14.7178 12.9435 14.3518 12.9932L14.25 13H6.75C6.33579 13 6 12.6642 6 12.25C6 11.8703 6.28215 11.5565 6.64823 11.5068L6.75 11.5H14.25ZM6.75 15.5H17.25C17.6642 15.5 18 15.8358 18 16.25C18 16.6297 17.7178 16.9435 17.3518 16.9932L17.25 17H6.75C6.33579 17 6 16.6642 6 16.25C6 15.8703 6.28215 15.5565 6.64823 15.5068L6.75 15.5ZM17.25 7.5C17.6642 7.5 18 7.83579 18 8.25C18 8.6297 17.7178 8.94349 17.3518 8.99315L17.25 9H6.75C6.33579 9 6 8.66421 6 8.25C6 7.8703 6.28215 7.55651 6.64823 7.50685L6.75 7.5H17.25Z" fill="#212121"/>
</svg>

<svg width="24" height="24" fill="none" viewBox="0 0 24 24" xmlns="http://www.w3.org/2000/svg"><path d="M21 5.75A2.75 2.75 0 0 0 18.25 3H5.75A2.75 2.75 0 0 0 3 5.75v12.5A2.75 2.75 0 0 0 5.75 21h12.5A2.75 2.75 0 0 0 21 18.25V5.75Zm-6.75 5.75a.75.75 0 0 1 .102 1.493L14.25 13h-7.5a.75.75 0 0 1-.102-1.493l.102-.007h7.5Zm-7.5 4h10.5a.75.75 0 0 1 .102 1.493L17.25 17H6.75a.75.75 0 0 1-.102-1.493l.102-.007Zm10.5-8a.75.75 0 0 1 .102 1.493L17.25 9H6.75a.75.75 0 0 1-.102-1.493L6.75 7.5h10.5Z" fill="#212121"/></svg>
